X:8
T:Cronin's Kitchen / The Kerry Cow / The Glen Cottage(2)
T:Julie's Polka Set #1
R:polka
Z:Brendan Breathnach
M:C|
L:1/8
K:G
"Cronin's Kitchen"
AB cd | ef g2 | a3/2g/ ed | B3/2A/ G2 |
A3/2B/ cd | ef ge | ag/e/ dB | A2 A2 :|
|: ag ed | ef g2 | ag ed | BA G2 |
A3/2B/ cd | ef ge | ag/e/ dB | A2 A2 :|
K:D
"The Kerry Cow"
A3/2B/ AG | FA d2 | GA GF | EF GE |
A3/2B/ AG | FA d3/2d/ | cA GE | D2 D2 :|
|: dc/d/ ed | cA A2 | BG GA | BA A2 |
dc/d/ ed | cA AB | c/B/A GE | D2 D2 :|
K:G
"The Glen Cottage(2)"
d2 |: eA Bd | e/f/e/d/ Bd | eA BA |G3/2/A/ Bd |
eA Bd | e/f/e/d/ Bd | ea e/f/e/d/ |1 BA AB/d/ :|2 BA A2 |
|: e2 ef/g/ | ae fe | d2 de/f/ | ge fd |
e2 ef/g/ | ae fd | ea e/f/e/d/ | BA A2 :|
